!!!OTL: Lingxiu jiubie huiguxiang
!!!ARE: Asia, China,ÿHunan Shaoshan
!! I, 488
!!!SCT: C2172
!!!YEM: Copyright 1995, estate of Helmut Schaffrath.
**kern
*ICvox
*Ivox
!! Mixed meters:  2/4; 3/4
*M2/4
*k[f#]
*G:
{12dd
12dd
12ee
=1
4gg
12ee
12gg
12ee
=2
2dd
=3
*M3/4
16aa
16aa
4gg
4.gg
=4
*M2/4
8ee
4.gg}
=5
{4r
12dd
12dd
12ee
=6
8aa
4gg
8ee
=7
2dd
=8
*M3/4
8gg
[8gg
2gg]
=9
*M2/4
8ee
8aa
4ee
=10
2dd}
=11
{8dd
8dd
8ee
8dd
=12
*M3/4
8gg
8ee
2gg
=13
16ee
16ee
4.gg
8ee
8ee
=14
4dd
2gg}
=15
*M2/4
{8r
16dd
16dd
8dd
8ee
=16
2dd
=17
*M3/4
8ee
8ee
2gg
=18
*M2/4
8ee
4.gg}
=19
*M3/4
{8aa
8dd
8ee
4.gg
=20
*M2/4
8ee
4.dd
=21
*M3/4
8ee
[8gg
2gg]
=22
*M2/4
8aa
8dd
4ee
=23
2dd}
==
!!!AGN: Shange
!!!ONB: ESAC (Essen Associative Code) Database: SENGANSU
!!!AMT: irregular
!!!AIN: vox
!!!EED: Helmut Schaffrath
!!!EEV: 1.0
*-
